icons/convert-note.svg

<svg width="24" height="24" viewBox="0 0 24 24" fill="none" xmlns="http://www.w3.org/2000/svg">
<path fill-rule="evenodd" clip-rule="evenodd" d="M11 20C11 20.5523 11.4477 21 12 21H16.5C16.7652 21 17.0196 20.8946 17.2071 20.7071L21.7071 16.2071C21.8946 16.0196 22 15.7652 22 15.5V15.0027L22 15L22 14.9972L22 7C22 4.79086 20.2091 3 18 3H8C5.79086 3 4 4.79086 4 7V9.5C4 10.0523 4.44772 10.5 5 10.5C5.55229 10.5 6 10.0523 6 9.5V7C6 5.89543 6.89543 5 8 5L18 5C19.1046 5 20 5.89543 20 7L20 14H17C15.8954 14 15 14.8954 15 16V19H12C11.4477 19 11 19.4477 11 20ZM17 18.0858L19.0858 16H17V18.0858Z" fill="#9AA1B4"/>
<path d="M9 8C9 7.44771 9.44772 7 10 7H16C16.5523 7 17 7.44771 17 8C17 8.55228 16.5523 9 16 9H10C9.44772 9 9 8.55228 9 8Z" fill="#9AA1B4"/>
<path d="M2 18C2 15.7909 3.79086 14 6 14H6.5V13C6.5 12.6156 6.72035 12.2652 7.06681 12.0987C7.41328 11.9322 7.82452 11.979 8.12469 12.2191L10.6247 14.2191C10.8619 14.4089 11 14.6962 11 15C11 15.3038 10.8619 15.5911 10.6247 15.7809L8.12469 17.7809C7.82452 18.021 7.41328 18.0678 7.06681 17.9013C6.72035 17.7348 6.5 17.3844 6.5 17V16H6C4.89543 16 4 16.8954 4 18C4 19.1046 4.89543 20 6 20H7.5C8.05228 20 8.5 20.4477 8.5 21C8.5 21.5523 8.05228 22 7.5 22H6C3.79086 22 2 20.2091 2 18Z" fill="#9AA1B4"/>
</svg>

<?xml version="1.0" encoding="utf-8"?>
<!-- Generator: Adobe Illustrator 22.1.0, SVG Export Plug-In . SVG Version: 6.00 Build 0)  -->
<svg version="1.1" id="Layer_1" xmlns="http://www.w3.org/2000/svg" xmlns:xlink="http://www.w3.org/1999/xlink" x="0px" y="0px"
	 viewBox="0 0 24 24" style="enable-background:new 0 0 24 24;" xml:space="preserve">
<style type="text/css">
	.st0{fill:#9AA1B4;}
</style>
<path class="st0" d="M18,3H8C5.8,3,4,4.8,4,7v2.5c0,0.6,0.4,1,1,1s1-0.4,1-1V7c0-1.1,0.9-2,2-2h10c1.1,0,2,0.9,2,2v7h-3
	c-1.1,0-2,0.9-2,2v3h-3c-0.6,0-1,0.4-1,1s0.4,1,1,1h4.5c0.3,0,0.5-0.1,0.7-0.3l4.5-4.5c0.2-0.2,0.3-0.4,0.3-0.7V15v0v0V7
	C22,4.8,20.2,3,18,3z M17,18.1V16h2.1L17,18.1z"/>
<path class="st0" d="M9,8c0-0.6,0.4-1,1-1h6c0.6,0,1,0.4,1,1c0,0.6-0.4,1-1,1h-6C9.4,9,9,8.6,9,8z"/>
<path class="st0" d="M2,18c0-2.2,1.8-4,4-4h0.5v-1c0-0.4,0.2-0.7,0.6-0.9c0.3-0.2,0.8-0.1,1.1,0.1l2.5,2c0.2,0.2,0.4,0.5,0.4,0.8
	s-0.1,0.6-0.4,0.8l-2.5,2c-0.3,0.2-0.7,0.3-1.1,0.1c-0.3-0.2-0.6-0.5-0.6-0.9v-1H6c-1.1,0-2,0.9-2,2s0.9,2,2,2h1.5c0.6,0,1,0.4,1,1
	s-0.4,1-1,1H6C3.8,22,2,20.2,2,18z"/>
</svg>
